!!!!SEGMENT: pl-sa--152-a-iv-2--004_bauer--missa-in-f-sanctus.krn
!!!cenid: 17xx:675
!!!COM: Bauer
!!!COM-rism: pe30005329
!!!CDT:
!!!CNT:
!!!OTL: Missa in F – Sanctus
!!!PDT:
!!!AGN: Sacred; Mass
!!!SMS-siglum: PL-SA
!!!SMS-shelfmark: 152/A IV 2
!!!NIFC-rismID: 1001035512
!!!URL-scan: http://bc.bdsandomierz.pl/dlibra/publication/1538/edition/1506/content
!!!ONB-nifc: UWAGA: części Mszy: Kyrie, Gloria, Credo, Sanctus, Benedictus, Agnus Dei, Dona nobis
!!!SMS-variant:
!!!SMS-altvar:
**kern	**kern	**kern	**kern	**text	**kern	**text	**kern	**text	**kern	**kern	**kern
*part9	*part8	*part7	*part6	*part6	*part5	*part5	*part4	*part4	*part3	*part2	*part1
*staff9	*staff8	*staff7	*staff6	*staff6	*staff5	*staff5	*staff4	*staff4	*staff3	*staff2	*staff1
*group4	*group4	*group4	*group3	*	*group3	*	*group3	*	*group2	*group2	*group1
*I"Fundamento	*I"Violino Secondo.	*I"Violino Primo	*I"Baſso.	*	*I"Tenore	*	*I"Canto	*	*I"Cornu Secondo: in F	*I"Cornu Primo in F	*I"Flauto Primo
*I'fund.	*I'vn 2	*I'vn 1	*I'B	*	*I'T	*	*I'S	*	*I'cor 2	*I'cor 1	*I'fl 1
*clefF4	*clefG2	*clefG2	*clefF4	*	*clefC4	*	*clefC1	*	*clefG2	*clefG2	*clefG2
*	*	*	*	*	*	*	*	*	*ITrd4c7	*ITrd4c7	*
*k[b-]	*k[b-]	*k[b-]	*k[b-]	*	*k[b-]	*	*k[b-]	*	*k[b-]	*k[b-]	*k[b-]
*F:	*F:	*F:	*F:	*	*F:	*	*F:	*	*	*	*F:
*M3/4	*M3/4	*M3/4	*M3/4	*	*M3/4	*	*M3/4	*	*M3/4	*M3/4	*M3/4
=1	=1	=1	=1	=1	=1	=1	=1	=1	=1	=1	=1
!LO:TX:b:t=Sanctus	!LO:TX:a:t=Ada:	!LO:TX:b:t=Sanctus	!	!	!	!	!	!	!LO:TX:a:t=Adagio	!LO:TX:a:t=Ada:	!LO:TX:a:t=Ada:
!LO:TX:a:t=Ada:	!LO:TX:b:t=Sanctus	!LO:TX:a:t=Andante	!	!	!LO:TX:a:t=problem:głos tenorowy dubluje bas, nie jest umieszczony na stronie tytułowej i zapisany inną ręką	!	!	!	!LO:TX:b:t=Sanctus	!LO:TX:b:t=Sanctus	!LO:TX:b:t=Sanctus
4F\	8.a\L	(8.ff\L	4F\	San-	4F/	San-	4ff\	San-	4A/	4f\	4fff\
.	32ee\LL	32gg\LL	.	.	.	.	.	.	.	.	.
.	32ff\JJJ	32aa\JJJ)	.	.	.	.	.	.	.	.	.
4C\	4ee\	4gg\	4C\	-ctus	4C/	-ctus	4ee\	-ctus	4c/	4g\	4eee\
4r	4r	4r	4r	.	4r	.	4r	.	4r	4r	4r
=2	=2	=2	=2	=2	=2	=2	=2	=2	=2	=2	=2
4C\	8.ee\L	(8.gg\L	8C/	Do-	8C/	Do-	8ee\	Do-	4c/	4g\	4eee\
.	.	.	8C/	-mi-	8C/	-mi-	8ee\	-mi-	.	.	.
.	32ff\LL	32aa\LL	.	.	.	.	.	.	.	.	.
.	32gg\JJJ	32bb-\JJJ)	.	.	.	.	.	.	.	.	.
4F\	4ff\	4aa\	4F\	-nus	4F/	-nus	4ff\	-nus	4f\	4a\	4fff\
4r	4r	4r	4r	.	4r	.	4r	.	4r	4r	4r
=3	=3	=3	=3	=3	=3	=3	=3	=3	=3	=3	=3
*	*	*	*2\right	*	*2\right	*	*2\right	*	*	*	*
!	!	!	!	!	!	!	!	!	!	!	!LO:TX:a:t=problem:brak zgodności pionów (t.3-4)
!	!	!	!	!	!	!	!	!	!	!	!LO:TX:a:t=1.
8r	4.aa\	4.ccc\	2A\	De-	2A\	De-	2cc\	De-	4r	4r	2.r
8A\	.	.	.	.	.	.	.	.	.	.	.
4B-\	.	.	.	.	.	.	.	.	4r	4r	.
.	16ff\LL	16aa\LL	.	.	.	.	.	.	.	.	.
.	16cc\JJ	16ff\JJ	.	.	.	.	.	.	.	.	.
4c\	16gg\LL	16bb-\LL	8B-\L	-us	8B-\L	-us	8ff\L	-us	8r	8r	.
.	16ee\	16gg\	.	.	.	.	.	.	.	.	.
.	16dd\	16ff\	8c\J	.	8c\J	.	8ee\J	.	8c/	8f\	.
.	16cc\JJ	16ee\JJ	.	.	.	.	.	.	.	.	.
=4	=4	=4	=4	=4	=4	=4	=4	=4	=4	=4	=4
!	!	!	!	!	!LO:TX:a:t=sic:l:s=Sa-	!	!	!	!	!	!
8c\L	8.cc\L	8.ff\L	8.f\	Sa-	8.f\	Sab-	8.ff\	Sa-	4A/	4f\	4fff\
8d\J	.	.	.	.	.	.	.	.	.	.	.
.	16a\Jk	16cc\Jk	16F\	-ba-	16F/	-ba-	16cc\	-ba-	.	.	.
4F\	4a\	4cc\	4F\	-oth	4F/	-oth	4cc\	-oth	4A/	4e\	4fff\
4r	4r	4r	4r	.	4r	.	4r	.	4r	4r	4r
=5	=5	=5	=5	=5	=5	=5	=5	=5	=5	=5	=5
!LO:TX:a:t=problem:mixed beam	!	!	!LO:TX:a:t=2	!	!LO:TX:a:t=2	!	!	!	!LO:TX:a:t=2	!LO:TX:a:t=2	!LO:TX:a:t=2
!	!	!	!LO:N:vis=0	!	!LO:N:vis=0	!	!LO:N:vis=0	!	!LO:N:vis=0	!LO:N:vis=0	!LO:N:vis=0
8B-\L	8.gg\L	8.e\L 8.cc 8.bb-	1.r	.	1.r	.	1.r	.	1.r	1.r	1.r
8G\	.	.	.	.	.	.	.	.	.	.	.
.	16ff\Jk	16aa\Jk	.	.	.	.	.	.	.	.	.
8c\	16ee\LL	16gg'\LL	.	.	.	.	.	.	.	.	.
.	16dd\	16ff'\	.	.	.	.	.	.	.	.	.
8C/	16cc\	16ee'\	.	.	.	.	.	.	.	.	.
.	16b-\JJ	16dd'\JJ	.	.	.	.	.	.	.	.	.
8E/	16a\LL	16cc'\LL	.	.	.	.	.	.	.	.	.
.	16g\	16b-'\	.	.	.	.	.	.	.	.	.
8C/J	16f\	16a'\	.	.	.	.	.	.	.	.	.
.	16e\JJ	16g'\JJ	.	.	.	.	.	.	.	.	.
=6	=6	=6	=6	=6	=6	=6	=6	=6	=6	=6	=6
4F\	16f\LL	16a'\LL	.	.	.	.	.	.	.	.	.
.	16a\	16cc'\	.	.	.	.	.	.	.	.	.
.	16b-\	16dd'\	.	.	.	.	.	.	.	.	.
.	16cc\JJ	16ee'\JJ	.	.	.	.	.	.	.	.	.
4FF/	16dd\LL	16ff'\LL	.	.	.	.	.	.	.	.	.
.	16ee\	16gg'\	.	.	.	.	.	.	.	.	.
.	16ff\	16aa'\	.	.	.	.	.	.	.	.	.
.	16gg\JJ	16bb-\JJ	.	.	.	.	.	.	.	.	.
!	!LO:LB:g=original	!	!	!	!	!	!	!	!	!	!
*	*	*tremolo	*	*	*	*	*	*	*	*	*
4r	4aa\	8ccc\L	.	.	.	.	.	.	.	.	.
.	.	8ccc\J	.	.	.	.	.	.	.	.	.
*	*	*Xtremolo	*	*	*	*	*	*	*	*	*
!	!	!LO:LB:g=oiginal	!	!	!	!	!	!	!	!	!
=7	=7	=7	=7	=7	=7	=7	=7	=7	=7	=7	=7
!	!	!	!	!	!	!	!	!	!	!	!LO:TX:a:t=problem:brak zgodności pionów w takcie
4B-\	16cc\LL	16aa\LL	8F\	De-	8F/	De-	8aa\	De-	8f\L	8a\L	4ggg\
.	16a\	16gg\	.	.	.	.	.	.	.	.	.
.	16dd\	16bb-\	8A\	-us	8A/	-us	8gg\	-us	8c\J	8g\J	.
.	16b-\JJ	16gg\JJ	.	.	.	.	.	.	.	.	.
!	!	!	!	!	!LO:TX:a:t=sic:l:s=Sa-	!	!	!	!	!	!
4c\	4a/	4ff\	4B-\	Sa-	4B-/	Sab-	4ff\	Sa-	4A/	4f\	4fff\
4C/	4g/	4ee\	4c\	-ba-	4c/	-ba-	4ee\	-ba-	4c/	4g\	4eee\
=8	=8	=8	=8	=8	=8	=8	=8	=8	=8	=8	=8
4F\	4a/	8.ff\L	4F\	-oth	4F/	-oth	4ff\	-oth	4F/	4f\	4fff\
.	.	16cc\Jk	.	.	.	.	.	.	.	.	.
4FF/	4a/	4cc\	4r	.	4r	.	4r	.	4F/	4F/	4fff\
4r	4r	4r	4r	.	4r	.	4r	.	4r	4r	4r
!LO:LB:g=original	!	!	!LO:LB:g=oiginal	!	!	!	!	!	!LO:LB:g=oiginal	!	!LO:LB:g=oiginal
=9	=9	=9	=9	=9	=9	=9	=9	=9	=9	=9	=9
4A\	8.a/L	8.cc\L	4A\	Ple-	4A/	Ple-	4cc\	Ple-	2.C/	2.c/	4fff\
.	16b-/Jk	16dd\Jk	.	.	.	.	.	.	.	.	.
4A\	8a/L	(8cc\L	4A\	-ni	4A/	-ni	4cc\	-ni	.	.	4fff\
.	8f/	8a\	.	.	.	.	.	.	.	.	.
4r	8g/	8b-\	8r	.	8r	.	8r	.	.	.	4r
!	!	!LO:TX:a:t=sic:s=8cc	!	!	!	!	!	!	!	!	!
.	8a/J	8cc#X\J)	8A\	Sunt	8A/	sunt	8cc\	Sunt	.	.	.
!	!	!	!	!	!LO:LB:g=original	!	!LO:LB:g=oiginal	!	!	!	!
=10	=10	=10	=10	=10	=10	=10	=10	=10	=10	=10	=10
4B-\	8.b-/L	8.dd\L	4B-\	Cae-	4B-\	Cae-	4dd\	Cae-	2.C/	2.c/	4fff\
.	16cc/Jk	16ee\Jk	.	.	.	.	.	.	.	.	.
4BB-/	8b-/L	(8dd\L	4B-\	-li	4B-\	-li	4dd\	-li	.	.	4fff\
.	8g/	8b-\	.	.	.	.	.	.	.	.	.
4r	8a/	8cc\	8r	.	8r	.	8r	.	.	.	4r
.	8b-/J	8dd\J)	8B-\	et	8B-\	et	8dd\	et	.	.	.
=11	=11	=11	=11	=11	=11	=11	=11	=11	=11	=11	=11
2C/	8.cc\L	8.ee\L	4c\	ter-	4c\	ter-	4ee\	Ter-	2.C/	2.c/	4eee\
.	16dd\Jk	16ff\Jk	.	.	.	.	.	.	.	.	.
.	16ee\LL	(16gg\LL	4c\	-ra	4c\	-ra	4ee\	-ra	.	.	4r
.	16ff\	16aa\)	.	.	.	.	.	.	.	.	.
.	16gg\	16bb-'\	.	.	.	.	.	.	.	.	.
.	16ff\JJ	16aa'\JJ	.	.	.	.	.	.	.	.	.
4E\	16ee\LL	(16gg\LL	4C/	et	4C/	et	8ff\L	et	.	.	4r
.	16dd\	16ff\)	.	.	.	.	.	.	.	.	.
.	16cc\	16ee'\	.	.	.	.	8cc\J	.	.	.	.
.	16b-\JJ	16dd'\JJ	.	.	.	.	.	.	.	.	.
!	!	!	!	!	!	!	!	!	!	!LO:LB:g=oiginal	!
=12	=12	=12	=12	=12	=12	=12	=12	=12	=12	=12	=12
4F\	8.a/L	8.cc\L	8F\L	ter-	8F/L	ter-	8cc\L	ter-	4C/	4c/	8ccc\L
.	.	.	8C\J	.	8C/J	.	8b-\J	.	.	.	8bb-\J
.	16g/Jk	16b-\Jk	.	.	.	.	.	.	.	.	.
4FF/	4f/	4a\	4F\	-ra	4F/	-ra	4a\	-ra	4A/	4f\	4aa\
4r	4r	4r	4r	.	4r	.	4r	.	4r	4r	4r
=13	=13	=13	=13	=13	=13	=13	=13	=13	=13	=13	=13
*	*	*	*	*	*	*	*	*	*	*2\right	*2\right
!	!	!	!	!	!	!	!	!	!	!	!LO:TX:a:t=problem:wiele niezgodności pionów do końca
4C\	4.gg\	4.bb-\	4E\	glo-	4E/	glo-	2gg\	glo-	2.c/	2.g\	2ccc\
4E\	.	.	4C\	-ri-	4C/	-ri-	.	.	.	.	.
.	8ee\	8gg\	.	.	.	.	.	.	.	.	.
4F\	16gg\LL	16bb-\LL	4F\	-a	4F/	-a	8aa\	-ri-	.	.	4ddd\
.	16ff\	(16aa\	.	.	.	.	.	.	.	.	.
.	16b-\	16gg\	.	.	.	.	8ff\	-a	.	.	.
.	16a\JJ	16ff\JJ)	.	.	.	.	.	.	.	.	.
=14	=14	=14	=14	=14	=14	=14	=14	=14	=14	=14	=14
4.B-\	4.g/	(4.ee\	8B-\L	Tu-	8B-/L	tu-	2ee\	Tu-	2c/	2g\	2eee\
.	.	.	8G\	.	8G/	.	.	.	.	.	.
.	.	.	8E\	.	8E/	.	.	.	.	.	.
8G\	16a/LL	16ff\LL	8C\J	.	8C/J	.	.	.	.	.	.
.	16b-/JJ	16gg\JJ)	.	.	.	.	.	.	.	.	.
8A\L	4a/	8ff\L	4F\	-a	4F/	-a	4ff\	-a	4f\	4a\	4ddd\
8F\J	.	8cc\J	.	.	.	.	.	.	.	.	.
=15	=15	=15	=15	=15	=15	=15	=15	=15	=15	=15	=15
!	!	!	!	!	!	!	!	!	!LO:TX:a:t=problem:brak 2 taktów	!	!
4C\	4.gg\	4.bb-\	4E\	glo-	4E/	glo-	2gg\	glo-	2.ryy	2.g\	2ccc\
4E\	.	.	4C\	-ri-	4C/	-ri-	.	.	.	.	.
.	8ee\	8gg\	.	.	.	.	.	.	.	.	.
!	!LO:LB:g=original	!	!	!	!	!	!	!	!	!	!
4F\	16gg\LL	16bb-\LL	4F\	-a	4F/	-a	8aa\	-ri-	.	.	4ddd\
.	16ff\	16aa\	.	.	.	.	.	.	.	.	.
.	16b-\	16gg\	.	.	.	.	8ff\	-a	.	.	.
.	16a\JJ	16ff\JJ	.	.	.	.	.	.	.	.	.
!	!	!LO:LB:g=oiginal	!LO:LB:g=oiginal	!	!	!	!	!	!	!	!
=16	=16	=16	=16	=16	=16	=16	=16	=16	=16	=16	=16
4.B-\	4.g/	4.ee\	8B-\L	Tu-	8B-/L	tu-	2ee\	tu-	2.ryy	2g\	2eee\
.	.	.	8G\	.	8G/	.	.	.	.	.	.
.	.	.	8E\	.	8E/	.	.	.	.	.	.
8G\L	16a/LL	16ff\LL	8C\J	.	8C/J	.	.	.	.	.	.
.	16b-/JJ	16gg\JJ	.	.	.	.	.	.	.	.	.
8A\	4a/	8ff\L	4F\	-a	4F/	-a	4ff\	-a	.	4a\	4fff\
8F\J	.	8cc\J	.	.	.	.	.	.	.	.	.
=17	=17	=17	=17	=17	=17	=17	=17	=17	=17	=17	=17
4C\	4.gg\	4.bb-\	4E\	glo-	4E/	glo-	2gg\	glo-	2.c/	2.g\	2ccc\
4E\	.	.	4C\	-ri-	4C/	-ri-	.	.	.	.	.
.	8ee\	8gg\	.	.	.	.	.	.	.	.	.
4F\	16gg\LL	16bb-\LL	4F\	-a	4F/	-a	8aa\L	-ri-	.	.	4ddd\
.	16ff\	16aa\	.	.	.	.	.	.	.	.	.
.	16b-\	16gg\	.	.	.	.	8ff\J	-a	.	.	.
.	16a\JJ	16ff\JJ	.	.	.	.	.	.	.	.	.
=18	=18	=18	=18	=18	=18	=18	=18	=18	=18	=18	=18
4.B-\	4.g/	4.ee\	2c\	Tu-	2c\	tu-	2ee\	tu-	4c/	2g\	2eee\
.	.	.	.	.	.	.	.	.	4f\	.	.
8G\L	16a/LL	16ff\LL	.	.	.	.	.	.	.	.	.
.	16b-/JJ	16gg\JJ	.	.	.	.	.	.	.	.	.
8A\	8a/L	8ff\L	4F\	-a	4F/	-a	4ff\	-a	4r	4a\	4fff\
8F\J	8a/J	8cc\J	.	.	.	.	.	.	.	.	.
=19	=19	=19	=19	=19	=19	=19	=19	=19	=19	=19	=19
*	*2\right	*2\right	*	*	*	*	*	*	*	*	*
*	*tremolo	*tremolo	*	*	*	*	*	*	*	*	*
*	*tremolo	*	*	*	*	*	*	*	*	*	*
*	*	*tremolo	*	*	*	*	*	*	*	*	*
!	!	!	!	!	!	!	!	!	!LO:TX:a:t=6.	!LO:TX:a:t=6.	!
!	!	!	!	!	!	!	!	!	!LO:N:vis=00	!LO:N:vis=00	!
8B-\L	16b-\LL	16dd\LL	4A\	O-	4A/	O-	4dd\	O-	0.r	0.r	4ddd\
.	16b-\	16dd\	.	.	.	.	.	.	.	.	.
8G\	16b-\	16dd\	.	.	.	.	.	.	.	.	.
.	16b-\	16dd\JJ	.	.	.	.	.	.	.	.	.
8c\	16b-\	16ee\LL	4B-\	-san-	4B-\	-san-	4ee\	-san-	.	.	2eee\
.	16b-\	16ee\	.	.	.	.	.	.	.	.	.
8B-\	16b-\	16ee\	.	.	.	.	.	.	.	.	.
.	16b-\JJ	16ee\	.	.	.	.	.	.	.	.	.
8c\	16cc\LL	16ee\	4B-\	-na	4B-\	-na	4ee\	-na	.	.	.
.	16cc\	16ee\	.	.	.	.	.	.	.	.	.
8A\J	16cc\	16ee\	.	.	.	.	.	.	.	.	.
.	16cc\JJ	16ee\JJ	.	.	.	.	.	.	.	.	.
!LO:LB:g=original	!	!	!	!	!	!	!	!	!	!	!LO:LB:g=oiginal
=20	=20	=20	=20	=20	=20	=20	=20	=20	=20	=20	=20
8c\L	16cc\LL	16ee\LL	2c\	in	2c\	in	2ee\	in	.	.	4eee\
.	16cc\	16ee\	.	.	.	.	.	.	.	.	.
8A\	16cc\	16ee\	.	.	.	.	.	.	.	.	.
.	16cc\	16ee\JJ	.	.	.	.	.	.	.	.	.
8d\	16cc\	16ff\LL	.	.	.	.	.	.	.	.	2fff\
.	16cc\	16ff\	.	.	.	.	.	.	.	.	.
8c\	16cc\	16ff\	.	.	.	.	.	.	.	.	.
.	16cc\JJ	16ff\	.	.	.	.	.	.	.	.	.
8d\	16dd\LL	16ff\	4d\	ex-	4d\	ex-	4ff\	ex-	.	.	.
.	16dd\	16ff\	.	.	.	.	.	.	.	.	.
8B-\J	16dd\	16ff\	.	.	.	.	.	.	.	.	.
.	16dd\JJ	16ff\JJ	.	.	.	.	.	.	.	.	.
!	!	!	!	!	!LO:LB:g=original	!	!LO:LB:g=oiginal	!	!	!	!
=21	=21	=21	=21	=21	=21	=21	=21	=21	=21	=21	=21
!	!	!	!LO:TX:a:t=sic:l:s=-cel-	!	!	!	!LO:TX:a:t=sic:l:s=-cel-	!	!	!	!
8d\L	16dd\LL	16ff\LL	2d\	-Cael-	2d\	-cel-	4ff\	-Cael-	.	.	4ff\
.	16dd\	16ff\	.	.	.	.	.	.	.	.	.
8B-\	16dd\	16ff\	.	.	.	.	.	.	.	.	.
.	16dd\	16ff\JJ	.	.	.	.	.	.	.	.	.
8e\	16dd\	16gg\LL	.	.	.	.	2gg\	-sis	.	.	2gg\
.	16dd\	16gg\	.	.	.	.	.	.	.	.	.
8d\	16dd\	16gg\	.	.	.	.	.	.	.	.	.
.	16dd\JJ	16gg\	.	.	.	.	.	.	.	.	.
8e\	16ee\LL	16gg\	4e\	-sis	4e\	-sis	.	.	.	.	.
.	16ee\	16gg\	.	.	.	.	.	.	.	.	.
!LO:TX:a:t=sic:s=8c	!	!	!	!	!	!	!	!	!	!	!
8d\J	16ee\	16gg\	.	.	.	.	.	.	.	.	.
.	16ee\JJ	16gg\JJ	.	.	.	.	.	.	.	.	.
=22	=22	=22	=22	=22	=22	=22	=22	=22	=22	=22	=22
8e\L	16ee\LL	16gg\LL	2e\	in	2e\	in	4gg\	in	.	.	4gg\
.	16ee\	16gg\	.	.	.	.	.	.	.	.	.
8c\J	16ee\	16gg\	.	.	.	.	.	.	.	.	.
.	16ee\	16gg\JJ	.	.	.	.	.	.	.	.	.
8f\L	16ee\	16aa\LL	.	.	.	.	2aa\	ex-	.	.	2aa\
.	16ee\	16aa\	.	.	.	.	.	.	.	.	.
8e\	16ee\	16aa\	.	.	.	.	.	.	.	.	.
.	16ee\JJ	16aa\	.	.	.	.	.	.	.	.	.
8f\	16ff\LL	16aa\	4f\	ex-	4f\	ex-	.	.	.	.	.
.	16ff\	16aa\	.	.	.	.	.	.	.	.	.
8d\J	16ff\	16aa\	.	.	.	.	.	.	.	.	.
.	16ff\JJ	16aa\JJ	.	.	.	.	.	.	.	.	.
=23	=23	=23	=23	=23	=23	=23	=23	=23	=23	=23	=23
!	!	!	!LO:TX:a:t=sic:l:s=-cel-	!	!	!	!LO:TX:a:t=sic:l:s=-cel-	!	!LO:N:vis=0	!LO:N:vis=0	!
4E\	16gg\LL	16aa\LL	4G\	-Cael-	4G/	-cel-	4ff\	-Cael-	1.r	1.r	4aa\
.	16gg\	16aa\	.	.	.	.	.	.	.	.	.
.	16gg\	16aa\	.	.	.	.	.	.	.	.	.
.	16gg\	16aa\JJ	.	.	.	.	.	.	.	.	.
4C\	16gg\	16bb-\LL	4C\	.	4C/	.	2gg\	-sis	.	.	2bb-\
.	16gg\	16bb-\	.	.	.	.	.	.	.	.	.
.	16gg\	16bb-\	.	.	.	.	.	.	.	.	.
.	16gg\JJ	16bb-\	.	.	.	.	.	.	.	.	.
4F\	16gg\LL	16bb-\	4F\	-sis	4F/	-sis	.	.	.	.	.
.	16gg\	16bb-\	.	.	.	.	.	.	.	.	.
.	16gg\	16bb-\	.	.	.	.	.	.	.	.	.
.	16gg\JJ	16bb-\JJ	.	.	.	.	.	.	.	.	.
*	*	*Xtremolo	*	*	*	*	*	*	*	*	*
*	*Xtremolo	*	*	*	*	*	*	*	*	*	*
*	*Xtremolo	*Xtremolo	*	*	*	*	*	*	*	*	*
=24	=24	=24	=24	=24	=24	=24	=24	=24	=24	=24	=24
4E\	4.gg\	4.bb-\	4G\	in	4G/	in	4.bb-\	in	.	.	4bb-\
4C\	.	.	4C\	ex-	4C/	ex-	.	.	.	.	4r
.	8ee\	8gg\	.	.	.	.	8gg\	ex-	.	.	.
!	!LO:TX:a:t=problem:mixed beam	!	!	!	!	!	!LO:TX:a:t=sic:l:s=-cel-	!	!	!	!
4F\	8ff\L	8aa\L	4F\	-cel-	4F/	-cel-	8aa\	-Cael-	.	.	4r
.	8a/J	8ff\J	.	.	.	.	8ff\	-sis	.	.	.
!	!	!	!LO:LB:g=oiginal	!	!	!	!	!	!	!	!
=25	=25	=25	=25	=25	=25	=25	=25	=25	=25	=25	=25
4B-\	8bb-\L	8ddd\L	4B-\	-sis	4B-/	-sis	4gg\	ex-	8f\L	8a\L	8.ddd\L
.	16aa\L	16ccc\L	.	.	.	.	.	.	8c\J	8g\J	.
.	16gg\JJ	16bb-\JJ	.	.	.	.	.	.	.	.	32ccc\LL
.	.	.	.	.	.	.	.	.	.	.	32bb-\JJJ
!	!	!	!	!	!	!	!LO:TX:a:t=sic:l:s=-cel-	!	!	!	!
4c\	4ff\	4aa\	4c\	in	4c/	in	4ff\	-Cael-	4A/	4f\	4aa\
4C/	4ee\	4gg\	4C/	ex-	4C/	ex-	4ee\	-sis	4c/	4g\	4gg\
=26	=26	=26	=26	=26	=26	=26	=26	=26	=26	=26	=26
4F\	4ff\	4ff\	4F\	-cel-	4F/	-cel-	4ff\	in	4F/	4f\	4ff\
4F\	4b-\	4dd\	4B-\	.	4B-/	.	4dd\	.	4F/	4F/	4ddd\
4F\	4a\	4cc\	4A\	.	4A/	.	4cc\	ex-	4F/	4F/	4ccc\
=27	=27	=27	=27	=27	=27	=27	=27	=27	=27	=27	=27
!	!	!	!	!	!	!	!LO:TX:a:t=sic:l:s=-cel-	!	!	!	!
2.BB-/	2.b-/	(2.dd\	2.B-\	.	2.B-\	.	2.dd\	-Cael-	2.F/	2.F/	2.ddd\
=28	=28	=28	=28	=28	=28	=28	=28	=28	=28	=28	=28
2.FF/	2a/	2cc\)	4A\	-sis	4A/	-sis	2.cc\	-sis	4F/	2F/	4ccc\
.	.	.	4r	.	4r	.	.	.	4r	.	4r
.	4r	4r	4r	.	4r	.	.	.	4r	4r	4r
==	==	==	==	==	==	==	==	==	==	==	==
*-	*-	*-	*-	*-	*-	*-	*-	*-	*-	*-	*-
!!!system-decoration: g1[(g2)][(g3)][(g4)]
!!!ENC: Anna Matuszewska
!!!END: 2020-09-05
